img/dribbble_icon.svg

<?xml version="1.0" encoding="UTF-8"?>
<svg width="20px" height="20px" viewBox="0 0 20 20" version="1.1" xmlns="http://www.w3.org/2000/svg" xmlns:xlink="http://www.w3.org/1999/xlink">
    <!-- Generator: Sketch 52.5 (67469) - http://www.bohemiancoding.com/sketch -->
    <title>dribbble_icon</title>
    <desc>Created with Sketch.</desc>
    <g id="Page-1" stroke="none" stroke-width="1" fill="none" fill-rule="evenodd">
        <g id="Desktop-HD" transform="translate(-740.000000, -733.000000)" fill="#031926">
            <g id="site_showcase" transform="translate(343.000000, 321.000000)">
                <g id="showcase_content">
                    <g id="social_icons" transform="translate(293.000000, 412.000000)">
                        <g id="dribbble_icon" transform="translate(104.000000, 0.000000)">
                            <path d="M10,0 C4.4794,0 0,4.4794 0,10 C0,15.5206 4.4794,20 10,20 C15.50976,20 20,15.5206 20,10 C20,4.4794 15.50976,0 10,0 Z M16.6052,4.60954 C17.79826,6.0629 18.5141,7.91758 18.5358,9.92408 C18.2538,9.86984 15.43384,9.29502 12.5922,9.65292 C12.52712,9.51194 12.47288,9.36008 12.40782,9.20824 C12.23428,8.7961 12.03904,8.3731 11.84382,7.9718 C14.98916,6.69198 16.42082,4.84816 16.6052,4.60954 Z M10,1.475054 C12.1692,1.475054 14.15402,2.2885 15.6616,3.62256 C15.50976,3.83948 14.21908,5.564 11.18222,6.70282 C9.78308,4.13232 8.2321,2.0282 7.9935,1.70282 C8.6334,1.550976 9.30586,1.475054 10,1.475054 Z M6.3666,2.27766 C6.59436,2.58134 8.1128,4.69632 9.53362,7.21258 C5.5423,8.27548 2.01736,8.2538 1.637744,8.25383331 C2.19088,5.60738 3.98048,3.40564 6.3666,2.27766 Z M1.453362,10.01084 C1.453362,9.92408 1.453362,9.83732 1.453362,9.75054 C1.822126,9.76138 5.9653,9.81562 10.22776,8.5358 C10.47722,9.01302 10.70498,9.50108 10.9219,9.98916 C10.81344,10.0217 10.69414,10.05424 10.58568,10.08676 C6.18222,11.5076 3.83948,15.39046 3.64426,15.71584 C2.2885,14.20824 1.453362,12.20174 1.453362,10.01084 Z M10,18.54664 C8.02604,18.54664 6.2039,17.87418 4.76138,16.7462 C4.91324,16.43168 6.6486,13.0911 11.4642,11.40998 C11.4859,11.39914 11.49674,11.39914 11.51844,11.38828 C12.72234,14.50108 13.21042,17.11496 13.34056,17.86334 C12.3102,18.30802 11.18222,18.54664 10,18.54664 Z M14.7614,17.08244 C14.67462,16.56182 14.2191,14.06724 13.10196,10.99784 C15.78092,10.57484 18.12364,11.26898 18.41648,11.3666 C18.04772,13.74186 16.68112,15.79176 14.7614,17.08244 Z" id="Shape"></path>
                        </g>
                    </g>
                </g>
            </g>
        </g>
    </g>
</svg>

<svg id="Page-1" xmlns="http://www.w3.org/2000/svg" width="20" height="20" viewBox="0 0 20 20">
  <g id="Desktop-HD" transform="translate(-740 -733)">
    <g id="site_showcase" transform="translate(343 321)">
      <g id="showcase_content">
        <g id="social_icons" transform="translate(293 412)">
          <g id="dribbble_icon" transform="translate(104)">
            <path id="Shape" d="M10,0A10,10,0,1,0,20,10,10,10,0,0,0,10,0Zm6.605,4.61a8.5,8.5,0,0,1,1.931,5.315,20.168,20.168,0,0,0-5.944-.271c-.065-.141-.119-.293-.184-.445-.174-.412-.369-.835-.564-1.236A11.431,11.431,0,0,0,16.605,4.61ZM10,1.475a8.522,8.522,0,0,1,5.662,2.148A9.681,9.681,0,0,1,11.182,6.7a46.111,46.111,0,0,0-3.189-5A8.686,8.686,0,0,1,10,1.475Zm-3.633.8A53.9,53.9,0,0,1,9.534,7.213a32.035,32.035,0,0,1-7.9,1.041A8.581,8.581,0,0,1,6.367,2.278ZM1.453,10.011v-.26a31.209,31.209,0,0,0,8.774-1.215c.249.477.477.965.694,1.453-.108.033-.228.065-.336.1a13.579,13.579,0,0,0-6.941,5.629A8.522,8.522,0,0,1,1.453,10.011ZM10,18.547a8.482,8.482,0,0,1-5.239-1.8,11.727,11.727,0,0,1,6.7-5.336c.022-.011.033-.011.054-.022a35.319,35.319,0,0,1,1.822,6.475A8.4,8.4,0,0,1,10,18.547Zm4.761-1.464A36.754,36.754,0,0,0,13.1,11a12.474,12.474,0,0,1,5.314.369A8.468,8.468,0,0,1,14.761,17.082Z" fill="#fff" fill-rule="evenodd"/>
          </g>
        </g>
      </g>
    </g>
  </g>
</svg>
